X: 20313
T: NARAGANSETT WALTZ  (No. 2.)
C:
%R: waltz
B: Elias Howe "The Musician's Companion" 1843 p.31 #3
S: http://imslp.org/wiki/The_Musician's_Companion_(Howe,_Elias)
Z: 2015 John Chambers <jc:trillian.mit.edu>
M: 3/4
L: 1/8
K: Bb
% - - - - - - - - - - - - - - - - - - - - - - - - -
|:\
FBd2B2 | BFG2E2 | EGF2D2 | DFE2C2 |\
FBd2B2 | BFG2E2 | EGFEDC | B,4z2 :|
|:\
FBd2d2 | (dc)(cB)B2 | cde2e2 | (ed)(dc)c2 |\
def2f2 | gabagf | edcBAc | B4z2 :|
% - - - - - - - - - - - - - - - - - - - - - - - - -

%%sep 1 1 500

